X: 36732
T: Sheep On The Moor
R: jig
M: 6/8
K: Amajor
|:c2A BAF|ABc efg|a2e fec|ecB BAB|
c2A BAF|ABc efg|a2e fec|1 BAG A3:|2 BAG Ace||
~a3 age|~f3 fef|a2e fec|ecB Bce|
~a3 age|~f3 fef|a2e fec|BAG Ace|
~a3 age|~f3 fef|a2e fec|ecB BAB|
c2A BAF|ABc efg|a2e fec|BAG A3||

